X: 30303
T: Old Man Dillon
R: jig
M: 6/8
K: Adorian
EAA Acd|edB c2A|BGG GFG|BdB BAG|
EAA Acd|ede ~g2g|edc Bcd|1 eAA A2G:|2 eAA A2g||
gef g2a|gef gdc|BGG GFG|BdB BAG|
[1~g3 g2a|gef gfg|edc Bcd|eAA A2g:|
[2EAA Acd|edB ~g3|edc Bcd|eAA A2G||

